optimized/24/solid/paint-brush.svg

<svg xmlns="http://www.w3.org/2000/svg" viewBox="0 0 24 24">
  <path fill-rule="evenodd" d="M20.5986 1.5C20.2232 1.5 19.8562 1.61111 19.5439 1.81934L14.4649 5.20533C13.1853 6.05835 12.0203 7.0624 10.993 8.19218C13.1064 9.18391 14.8161 10.8935 15.8078 13.007C16.9376 11.9797 17.9416 10.8146 18.7946 9.53508L22.1806 4.45609C22.3888 4.14375 22.5 3.77677 22.5 3.40139C22.5 2.35128 21.6487 1.5 20.5986 1.5ZM12.2995 15.5249C12.9568 15.1597 13.5898 14.7563 14.1954 14.3175C13.3836 12.258 11.742 10.6164 9.68246 9.80456C9.24361 10.4102 8.84023 11.0432 8.47506 11.7005L8.19653 12.2018C9.93302 12.6985 11.3015 14.0669 11.7981 15.8034L12.2995 15.5249ZM6.74995 13.5C4.67886 13.5 2.99995 15.1789 2.99995 17.25C2.99995 18.0784 2.32839 18.75 1.49995 18.75C1.46599 18.75 1.43219 18.7489 1.3986 18.7466C1.12245 18.7284 0.858681 18.8637 0.712418 19.0986C0.566154 19.3336 0.561166 19.63 0.699441 19.8697C1.60524 21.4402 3.30337 22.5 5.24995 22.5C8.14946 22.5 10.5 20.1495 10.5 17.25C10.5 15.1789 8.82104 13.5 6.74995 13.5Z" clip-rule="evenodd"/>
</svg>

<svg xmlns="http://www.w3.org/2000/svg" viewBox="0 0 24 24" fill="currentColor" aria-hidden="true">
  <path fill-rule="evenodd" d="M20.599 1.5c-.376 0-.743.111-1.055.32l-5.08 3.385a18.747 18.747 0 00-3.471 2.987 10.04 10.04 0 014.815 4.815 18.748 18.748 0 002.987-3.472l3.386-5.079A1.902 1.902 0 0020.599 1.5zm-8.3 14.025a18.76 18.76 0 001.896-1.207 8.026 8.026 0 00-4.513-4.513A18.75 18.75 0 008.475 11.7l-.278.5a5.26 5.26 0 013.601 3.602l.502-.278zM6.75 13.5A3.75 3.75 0 003 17.25a1.5 1.5 0 01-1.601 1.497.75.75 0 00-.7 1.123 5.25 5.25 0 009.8-2.62 3.75 3.75 0 00-3.75-3.75z" clip-rule="evenodd"/>
</svg>
